X: 36
T: POLKAS: Ballydesmond Set
T: Ballydesmond No. 1
C: C: Trad.; S: Various
C: Set Leaders: Andrey, Olya, Vova, Anton, Tania, Oliushka, André
Z: Anton Zille ed., Oleg Naumov arr.; ceolachan / ceolachan / Mix O'Lydian at The Session
N: https://thesession.org/members/26966/sets/96720
R: Polka
M: 2/4
L: 1/8
Q: 1/4=140
K: Ador
|:"Am"EA A>B|"Am"cd e2|"G"G>F GA|"Em"GE ED|
"Am"EA AB|"C"cd e>f|"G"ge dB|1 "Em"A2 A/B/A/G/:|2 "Am"A2 Ae||
|:"Am"a>g ab|"Am"ag ef|"G"g>f ga|"Em"ge ed|
"Am"ea a>b|"Am"ag e>f|"G"ge dB|1 "Em"A2 A2:|2 "Am"A2 A/B/A/G/||
T: Ballydesmond No. 2
K: Ador
|:"C"c2 "G"Bc/B/|"Am"AB/A/ "Em"G>A|"G"Bd ed|"Em"g2 g>d|
"Am"ea g/a/g/e/|"G"dB GA/B/|"C"ce "Em"dB|1 "Am"A2 AB:|2 "Am"A2 A>d||
|:"Am"ea ag/e/|"G"dg ge/d/|"Am"ea ab|"Em"g2 ed|
"Am"ea g/a/g/e/|"G"dB GA/B/|"Am"ce "Em"dB|1 "Am"A2 A>d:|2 "Am"A2 AB||
T: Ballydesmond No. 3
K: Gmaj
|:"G"G>A Bd|"G"gf ed|"C"eA AB|"D"cd/c/ BA|
"G"G>A Bd|"G"gf ed|"C"ea "D"ef|"G"g2 g2:||
|:"Am"ae ae|"Am"ae e>f|"G"gd gd|"G"gd d2|
"Am"ae ae|"Am"ae e>f|"Em (C)"ge dB|1 "Am"A2 A2:|2 "D"AB/c/ BA||

